X: 10462
T: HUMORS OF TIPPERARY
C:
%R: jig
B: Elias Howe "The Musician's Companion" Part 1 1842 p.46 #2
S: http://imslp.org/wiki/The_Musician's_Companion_(Howe,_Elias)
Z: 2015 John Chambers <jc:trillian.mit.edu>
M: 6/8
L: 1/8
K: D
% - - - - - - - - - - - - - - - - - - - - - - - - -
|:\
DED AFD | DED B3 | ABc def | ged cBA |\
DED AFD | DED B3 | ABc dcB | ABG FED ::\
ABA ecA | ABA f3 |
efg agf | efd cBA |\
a3 f3 | ecA B3 | ABc dcB | ABG FED ::\
D2d D2d | D2d B3 | ABc def | ged cBA |\
d3 B3
AFD B3 | ABc dcB | ABG FED ::\
A2a A2a | A2a f3 | efg agf | efd cBA |\
a3 f3 | ecA B3 | ABc dcB | ABG FED :|
% - - - - - - - - - - - - - - - - - - - - - - - - -


